X: 909
T: Huish the Cat   #3
T: Hush the Cat
T: Dance Light, For My Heart Lies Under Your Feet
R: jig
%S: s:2 b:10(5+5)
B: O'Neill's 1850 #909
Z: Tom Keays (htkeays@mailbox.syr.edu)
N: Compacted via repeats and multiple endings [JC]
%abc 1.6
M: 6/8
L: 1/8
K: Gmix
"^A"|: G>AG c2e |1,3 d<dA c2e :|2 ecA A2c :| g>fe f2d | ecA (A2{BA}G) :|
"^B"|: gfe  f2d |1,3 edc  f2d :|2 ecA A2G :| G>AG f2d | ecA (A2{BA}G) :|
